!!!SOCIAL_FUNCTION:	songs of the sun dance
!!!PDT:	1918

Specific Region: Dakotas, Minnesota, Montana, Nebraska
!!!REG: Dakotas and Montana
!!!LING_GROUP: Siouan
!!!LANG: Tone
!!!OTL@ENG: I Have Conquered Them
!!!ONM: No. 28
**kern
*Imale
*clefF4
*k[f#]
*M3/4
*>[A,A1,A,A2]
*>norep[A,A2]
*>A
*MM92
4g
16g
16e
8e
4e
=2
16f#
16e
8e
16e
16B
8B
4B
=3
4f#
16f#
16e
8e
4e
=4
16f#
16e
8e
16e
16B
8B
8.B
16A
=5
16B
16B
8B
16B
16A
8A
8.A
16G
=6
16A
16A
8A
16A
16G
8G
8.G
16E
=7
4G
16G
16E
8E
4E
=8||
*M2/4
16G
16G
8G
16G
16E
8E
=9
8.E
16BB
16E
16E
8E
=10
16G
16G
16G
16E
16G
16E
8E
=11
16E
16E
16E
16D
16E
16D
8E
=12
8B
8B
8e
8e
=13
(16e
16B)
8B
(8..B
32A)
=14||
*M3/4
8B
8B
8B
8A
(8.A
16G)
=15
8A
8A
(16A
16G)
8G
4G
=16
8G
8G
(16G
16E)
8E
4E
=17||
*M2/4
16G
16G
8G
16G
16E
8E
=18
16E
16E
16E
16BB
16E
16E
8E
=19
8G
16G
16E
16G
16E
8E
=20
8E
8E
16E
16D
8E
*>A1
=21||
!! ending 1
*M3/4
4B
16e
16B
8B
8.B
16A
*>A2
=:|!
!! ending 2
8E
8E
16E
16D
8E
=22
4E
4r
==
*-
!!!CNT: Native American -- Sioux
!!!MRD: 1911/07//-1914///
!!!OCL: Frances Densmore
!!!YOR1: Teton Sioux Music, Bulletin 61,
!!!YOR2: Bureau of American Ethnology, Smithsonian Institution
!!!PPR: Government Printing Office
!!!PPP: Washington, D.C.
!!!PDT: 1918///
!!!ENC: Craig Stuart Sapp
!!!END: 2002/03/25/
!!!EEV: 2002/03/31/
!!!AGN: Ceremonial Song/Song of the Sun Dance
!!!MPN@@SIO: Ishn'la-wicha'
!!!MPN@ENG: Lone Man
!!!TXO: Teton Sioux
!!!MLC: Standing Rock Reservation, South Dakota, United States of America
!!!ARL: 45.9/-100.7#
!!!catalog: Catalogue No. 484
!!!PPG: 142
!!!EFL: 28/245
!! ending 1
!! ending 2
!!!VTS: 979458048
